packages/core/src/svgs/tokens/mono/SLG.svg

<svg width="24" height="24" viewBox="0 0 24 24" fill="none" xmlns="http://www.w3.org/2000/svg">
<path d="M2.58838 17.8059L5.52948 12.3354L12.0588 15.2059L18.4704 12.3354L21.4115 17.8059L12.0588 21.9999L2.58838 17.8059Z" fill="white"/>
<path fill-rule="evenodd" clip-rule="evenodd" d="M11.988 15.5938C9.86448 14.5173 5.59989 12.3585 5.5293 12.335L11.988 9.12329L18.4702 12.335L11.988 15.5938ZM11.988 14.576C10.5351 13.8408 7.61161 12.3585 7.55868 12.3409L11.988 10.1409L16.4408 12.3468L11.988 14.5819V14.576ZM9.94093 12.8821L11.9997 13.7643L14.0585 12.8762L11.9997 11.9997L9.94093 12.8762V12.8821Z" fill="white"/>
<path d="M11.9995 11.4116L7.2937 9.34102L11.9995 2V11.4116Z" fill="white"/>
<path d="M11.9998 11.4116L16.7056 9.34102L11.9998 2V11.4116Z" fill="white"/>
</svg>

<svg xmlns="http://www.w3.org/2000/svg" width="24" height="24" fill="none" viewBox="0 0 24 24">
    <path fill="#fff" d="m2.588 17.806 2.941-5.47 6.53 2.87 6.411-2.87 2.942 5.47L12.059 22z"/>
    <path fill="#fff" fill-rule="evenodd" d="M11.988 15.594c-2.124-1.077-6.388-3.235-6.459-3.259l6.459-3.212 6.482 3.212zm0-1.018c-1.453-.735-4.376-2.218-4.43-2.235l4.43-2.2 4.453 2.206-4.453 2.235zm-2.047-1.694 2.059.882 2.059-.888-2.06-.876-2.058.876z" clip-rule="evenodd"/>
    <path fill="#fff" d="M12 11.412 7.293 9.34 12 2zm0 0 4.706-2.071L12 2z"/>
</svg>
